icon-svg/firetv-cube.svg

<svg xmlns="http://www.w3.org/2000/svg" viewBox="0 0 24 24"><path fill="#44739e" d="M13.841 5.886c.806 0 1.228-.2 1.228-.31s-.422-.309-1.228-.309-1.227.2-1.227.309.422.31 1.227.31m-3.735-1.915c.806 0 1.228-.2 1.228-.309s-.422-.31-1.228-.31-1.227.2-1.227.31.421.309 1.227.309m5.043.39c.805 0 1.227-.2 1.227-.31s-.422-.309-1.227-.309-1.228.2-1.228.309.422.31 1.228.31M8.114 5.512c.806 0 1.228-.2 1.228-.31s-.422-.309-1.228-.309-1.227.2-1.227.309.421.31 1.227.31M2.2 4.442l5.559 2.7a2.84 2.84 0 0 0 1.716.246l12.3-2.065a.22.22 0 0 0 .192-.2.216.216 0 0 0-.149-.229l-6.111-2.129a4.65 4.65 0 0 0-2.914-.3L2.29 3.892a.29.29 0 0 0-.255.246.284.284 0 0 0 .165.304m12.95-.86c.689 0 1.387.161 1.387.469s-.7.47-1.387.47-1.388-.162-1.388-.47.697-.469 1.387-.469Zm-1.309 1.525c.69 0 1.388.161 1.388.469s-.7.47-1.388.47-1.387-.161-1.387-.47.698-.469 1.387-.469m-3.735-1.915c.69 0 1.388.161 1.388.47s-.7.469-1.388.469-1.387-.161-1.387-.469.698-.47 1.387-.47M8.114 4.733c.69 0 1.387.161 1.387.469s-.7.47-1.387.47-1.387-.161-1.387-.472.698-.467 1.387-.467m1.917 15.558a2.23 2.23 0 0 1-1.694-.073h-.006l-5.987-4.595v.918l5.863 4.78a2.2 2.2 0 0 0 1.761.237l10.988-2.88a.84.84 0 0 0 .567-.5l.006-.73-11.166 2.77q-.172.04-.332.073M21.947 5.5 9.907 7.553a3.36 3.36 0 0 1-2.241-.264l-.477-.246-5.06-2.457A.5.5 0 0 1 2 4.494v.462l5.661 3.026a3.24 3.24 0 0 0 2.152.364l12.13-2.085.057-.4a3 3 0 0 0-.053-.361M7.7 8.272 2.14 5.265l.36 10.183 5.55 4.215A1.88 1.88 0 0 0 9.635 20l11.739-2.824.347-10.686-12.2 2.08A2.8 2.8 0 0 1 7.7 8.272"/></svg>

<?xml version="1.0" encoding="UTF-8"?>
<svg width="24px" fill="#44739e" height="24px" viewBox="0 0 24 24" version="1.1" xmlns="http://www.w3.org/2000/svg" xmlns:xlink="http://www.w3.org/1999/xlink">
            <path d="m 13.841,5.886 c 0.806,0 1.228,-0.2 1.228,-0.31 0,-0.11 -0.422,-0.309 -1.228,-0.309 -0.806,0 -1.227,0.2 -1.227,0.309 0,0.109 0.422,0.31 1.227,0.31 z M 10.106,3.971 c 0.806,0 1.228,-0.2 1.228,-0.309 0,-0.109 -0.422,-0.31 -1.228,-0.31 -0.806,0 -1.227,0.2 -1.227,0.31 0,0.11 0.421,0.309 1.227,0.309 z m 5.043,0.39 c 0.805,0 1.227,-0.2 1.227,-0.31 0,-0.11 -0.422,-0.309 -1.227,-0.309 -0.805,0 -1.228,0.2 -1.228,0.309 0,0.109 0.422,0.31 1.228,0.31 z M 8.114,5.512 c 0.806,0 1.228,-0.2 1.228,-0.31 0,-0.11 -0.422,-0.309 -1.228,-0.309 -0.806,0 -1.227,0.2 -1.227,0.309 0,0.109 0.421,0.31 1.227,0.31 z M 2.2,4.442 l 5.559,2.7 a 2.836,2.836 0 0 0 1.716,0.246 l 12.3,-2.065 a 0.223,0.223 0 0 0 0.192,-0.2 0.216,0.216 0 0 0 -0.149,-0.229 L 15.707,2.765 a 4.654,4.654 0 0 0 -2.914,-0.3 L 2.29,3.892 A 0.291,0.291 0 0 0 2.035,4.138 0.284,0.284 0 0 0 2.2,4.442 Z m 12.95,-0.86 c 0.689,0 1.387,0.161 1.387,0.469 0,0.308 -0.7,0.47 -1.387,0.47 -0.687,0 -1.388,-0.162 -1.388,-0.47 0,-0.308 0.697,-0.469 1.387,-0.469 z m -1.309,1.525 c 0.69,0 1.388,0.161 1.388,0.469 0,0.308 -0.7,0.47 -1.388,0.47 -0.688,0 -1.387,-0.161 -1.387,-0.47 0,-0.309 0.698,-0.469 1.387,-0.469 z M 10.106,3.192 c 0.69,0 1.388,0.161 1.388,0.47 0,0.309 -0.7,0.469 -1.388,0.469 -0.688,0 -1.387,-0.161 -1.387,-0.469 0,-0.308 0.698,-0.47 1.387,-0.47 z M 8.114,4.733 c 0.69,0 1.387,0.161 1.387,0.469 0,0.308 -0.7,0.47 -1.387,0.47 -0.687,0 -1.387,-0.161 -1.387,-0.472 0,-0.311 0.698,-0.467 1.387,-0.467 z m 1.917,15.558 A 2.232,2.232 0 0 1 8.337,20.218 H 8.331 L 2.344,15.623 v 0.918 l 5.863,4.78 a 2.2,2.2 0 0 0 1.761,0.237 l 10.988,-2.88 a 0.842,0.842 0 0 0 0.567,-0.5 l 0.006,-0.73 -11.166,2.77 c -0.115,0.027 -0.225,0.05 -0.332,0.073 z M 21.947,5.5 9.907,7.553 A 3.358,3.358 0 0 1 7.666,7.289 L 7.189,7.043 2.129,4.586 A 0.486,0.486 0 0 1 2,4.494 V 4.956 L 7.661,7.982 A 3.24,3.24 0 0 0 9.813,8.346 L 21.943,6.261 22,5.861 A 2.85,2.85 0 0 0 21.947,5.5 Z M 7.7,8.272 2.14,5.265 2.5,15.448 8.05,19.663 A 1.879,1.879 0 0 0 9.635,20 L 21.374,17.176 21.721,6.49 9.521,8.57 A 2.8,2.8 0 0 1 7.7,8.272 Z"/>

</svg>
